cmit@ubuntu:~/dev_ws/src/wd_hga_process/wd_hga_process$ python3 Ham_move_robot_5.py
/home/cmit/.local/lib/python3.8/site-packages/torchvision/io/image.py:13: UserWarning: Failed to load image Python extension: 
  warn(f"Failed to load image Python extension: {e}")
YOLOv5 🚀 v6.1-379-gf5335f2 Python-3.8.10 torch-1.12.1 CPU

Fusing layers... 
Model summary: 378 layers, 35248920 parameters, 0 gradients, 48.9 GFLOPs
Adding AutoShape... 
Controller version: 5.11.6.0
RTDE synchronization started
connect :  None
ham_detect_and_adjust
0
1
2
3
while loop
iThreadRun : 0
in iThreadRun
threadDetection
x1 y1 x2 y2 :294 155 556 387
z Axis :OK
move left
new_pos 0.0007218400000000001
Before : [2.91847562789917, -1.2875788670829316, 1.0661681334124964, -1.3477264058640976, -1.5630505720721644, 2.867321014404297]
After : [2.91847562789917, -1.2883007070829315, 1.0661681334124964, -1.3477264058640976, -1.5630505720721644, 2.867321014404297]
threadDetection - iThreadRun : 1
threadDetection - iThreadRun : 2
iThreadRun : 2
finish1
Action move [2.91847562789917, -1.2883007070829315, 1.0661681334124964, -1.3477264058640976, -1.5630505720721644, 2.867321014404297]
movep(p[2.91847562789917,-1.2883007070829315,1.0661681334124964,-1.3477264058640976,-1.5630505720721644,2.867321014404297],a=0.1,v=0.01,r=0)
finish2
iThreadRun : 0
in iThreadRun
threadDetection
iThreadRun : 1
iThreadRun : 1
x1 y1 x2 y2 :293 156 556 388
z Axis :OK
move left
new_pos 0.0007218400000000001
Before : [2.9178626537323, -1.283696250324585, 1.0599883238421839, -1.3454056692174454, -1.5630577246295374, 2.8666651248931885]
After : [2.9178626537323, -1.284418090324585, 1.0599883238421839, -1.3454056692174454, -1.5630577246295374, 2.8666651248931885]
threadDetection - iThreadRun : 1
threadDetection - iThreadRun : 2
iThreadRun : 2
finish1
Action move [2.9178626537323, -1.284418090324585, 1.0599883238421839, -1.3454056692174454, -1.5630577246295374, 2.8666651248931885]
movep(p[2.9178626537323,-1.284418090324585,1.0599883238421839,-1.3454056692174454,-1.5630577246295374,2.8666651248931885],a=0.1,v=0.01,r=0)
finish2
iThreadRun : 0
in iThreadRun
threadDetection
iThreadRun : 1
iThreadRun : 1
x1 y1 x2 y2 :293 155 556 388
z Axis :OK
move left
new_pos 0.0007218400000000001
Before : [2.917222261428833, -1.2738714975169678, 1.0442078749286097, -1.3388986152461548, -1.5648415724383753, 2.8658642768859863]
After : [2.917222261428833, -1.2745933375169678, 1.0442078749286097, -1.3388986152461548, -1.5648415724383753, 2.8658642768859863]
threadDetection - iThreadRun : 1
threadDetection - iThreadRun : 2
iThreadRun : 2
finish1
Action move [2.917222261428833, -1.2745933375169678, 1.0442078749286097, -1.3388986152461548, -1.5648415724383753, 2.8658642768859863]
movep(p[2.917222261428833,-1.2745933375169678,1.0442078749286097,-1.3388986152461548,-1.5648415724383753,2.8658642768859863],a=0.1,v=0.01,r=0)
finish2
iThreadRun : 0
in iThreadRun
threadDetection
iThreadRun : 1
iThreadRun : 1
x1 y1 x2 y2 :291 159 554 390
z Axis :OK
move left
new_pos 0.0007476200000000001
Before : [2.9167025089263916, -1.2612215143493195, 1.023895565663473, -1.3304854196361084, -1.5676091353045862, 2.8651514053344727]
After : [2.9167025089263916, -1.2619691343493196, 1.023895565663473, -1.3304854196361084, -1.5676091353045862, 2.8651514053344727]
threadDetection - iThreadRun : 1
threadDetection - iThreadRun : 2
iThreadRun : 2
finish1
Action move [2.9167025089263916, -1.2619691343493196, 1.023895565663473, -1.3304854196361084, -1.5676091353045862, 2.8651514053344727]
movep(p[2.9167025089263916,-1.2619691343493196,1.023895565663473,-1.3304854196361084,-1.5676091353045862,2.8651514053344727],a=0.1,v=0.01,r=0)
finish2
iThreadRun : 0
in iThreadRun
threadDetection
iThreadRun : 1
iThreadRun : 1
x1 y1 x2 y2 :288 164 551 393
z Axis :OK
move left
new_pos 0.00078629
Before : [2.916195869445801, -1.2482226353934784, 1.0031846205340784, -1.3218153578094025, -1.5704343954669397, 2.8644797801971436]
After : [2.916195869445801, -1.2490089253934784, 1.0031846205340784, -1.3218153578094025, -1.5704343954669397, 2.8644797801971436]
threadDetection - iThreadRun : 1
threadDetection - iThreadRun : 2
iThreadRun : 2
finish1
Action move [2.916195869445801, -1.2490089253934784, 1.0031846205340784, -1.3218153578094025, -1.5704343954669397, 2.8644797801971436]
movep(p[2.916195869445801,-1.2490089253934784,1.0031846205340784,-1.3218153578094025,-1.5704343954669397,2.8644797801971436],a=0.1,v=0.01,r=0)
finish2
iThreadRun : 0
in iThreadRun
threadDetection
iThreadRun : 1
iThreadRun : 1
x1 y1 x2 y2 :286 167 546 396
z Axis :OK
move left
new_pos 0.00085074
Before : [2.9158225059509277, -1.235129640703537, 0.9819796721087855, -1.3129204672626038, -1.573211971913473, 2.863826274871826]
After : [2.9158225059509277, -1.235980380703537, 0.9819796721087855, -1.3129204672626038, -1.573211971913473, 2.863826274871826]
move up
threadDetection - iThreadRun : 1
threadDetection - iThreadRun : 2
iThreadRun : 2
finish1
Action move [2.9158225059509277, -1.235980380703537, 0.9819796721087855, -1.3129204672626038, -1.573211971913473, 2.863826274871826]
movep(p[2.9158225059509277,-1.235980380703537,0.9819796721087855,-1.3129204672626038,-1.573211971913473,2.863826274871826],a=0.1,v=0.01,r=0)
finish2
iThreadRun : 0
in iThreadRun
threadDetection
iThreadRun : 1
iThreadRun : 1
x1 y1 x2 y2 :283 168 540 398
z Axis :OK
move left
new_pos 0.00092808
Before : [2.9153406620025635, -1.2216780644706269, 0.9604418913470667, -1.3039435011199494, -1.5760787169085901, 2.863265037536621]
After : [2.9153406620025635, -1.2226061444706269, 0.9604418913470667, -1.3039435011199494, -1.5760787169085901, 2.863265037536621]
move up
threadDetection - iThreadRun : 1
threadDetection - iThreadRun : 2
iThreadRun : 2
finish1
Action move [2.9153406620025635, -1.2226061444706269, 0.9604418913470667, -1.3039435011199494, -1.5760787169085901, 2.863265037536621]
movep(p[2.9153406620025635,-1.2226061444706269,0.9604418913470667,-1.3039435011199494,-1.5760787169085901,2.863265037536621],a=0.1,v=0.01,r=0)
finish2
iThreadRun : 0
in iThreadRun
threadDetection
iThreadRun : 1
iThreadRun : 1
x1 y1 x2 y2 :280 172 537 402
z Axis :OK
move left
new_pos 0.00096675
Before : [2.9151158332824707, -1.2082827550223847, 0.9388406912433069, -1.2948364180377503, -1.578893009816305, 2.8627254962921143]
After : [2.9151158332824707, -1.2092495050223846, 0.9388406912433069, -1.2948364180377503, -1.578893009816305, 2.8627254962921143]
move up
threadDetection - iThreadRun : 1
threadDetection - iThreadRun : 2
iThreadRun : 2
finish1
Action move [2.9151158332824707, -1.2092495050223846, 0.9388406912433069, -1.2948364180377503, -1.578893009816305, 2.8627254962921143]
movep(p[2.9151158332824707,-1.2092495050223846,0.9388406912433069,-1.2948364180377503,-1.578893009816305,2.8627254962921143],a=0.1,v=0.01,r=0)
finish2
iThreadRun : 0
in iThreadRun
threadDetection
iThreadRun : 1
iThreadRun : 1
x1 y1 x2 y2 :277 174 533 406
z Axis :OK
move left
new_pos 0.00101831
Before : [2.9147212505340576, -1.1945011478713532, 0.916361157094137, -1.2853167814067383, -1.5816996733294886, 2.862189531326294]
After : [2.9147212505340576, -1.1955194578713533, 0.916361157094137, -1.2853167814067383, -1.5816996733294886, 2.862189531326294]
move up
threadDetection - iThreadRun : 1
threadDetection - iThreadRun : 2
iThreadRun : 2
finish1
Action move [2.9147212505340576, -1.1955194578713533, 0.916361157094137, -1.2853167814067383, -1.5816996733294886, 2.862189531326294]
movep(p[2.9147212505340576,-1.1955194578713533,0.916361157094137,-1.2853167814067383,-1.5816996733294886,2.862189531326294],a=0.1,v=0.01,r=0)
finish2
iThreadRun : 0
in iThreadRun
threadDetection
iThreadRun : 1
iThreadRun : 1
x1 y1 x2 y2 :273 177 532 409
z Axis :OK
move left
new_pos 0.0010312
Before : [2.914547920227051, -1.1803723138621827, 0.8933008352862757, -1.2754764717868348, -1.584550682698385, 2.861690044403076]
After : [2.914547920227051, -1.1814035138621826, 0.8933008352862757, -1.2754764717868348, -1.584550682698385, 2.861690044403076]
move up
threadDetection - iThreadRun : 1
threadDetection - iThreadRun : 2
iThreadRun : 2
finish1
Action move [2.914547920227051, -1.1814035138621826, 0.8933008352862757, -1.2754764717868348, -1.584550682698385, 2.861690044403076]
movep(p[2.914547920227051,-1.1814035138621826,0.8933008352862757,-1.2754764717868348,-1.584550682698385,2.861690044403076],a=0.1,v=0.01,r=0)
finish2
iThreadRun : 0
in iThreadRun
threadDetection
iThreadRun : 1
iThreadRun : 1
x1 y1 x2 y2 :270 182 530 412
z Axis :OK
move left
new_pos 0.0010569800000000001
Before : [2.9142093658447266, -1.1662055116942902, 0.8702047506915491, -1.2656420928290864, -1.5873892943011683, 2.8612499237060547]
After : [2.9142093658447266, -1.1672624916942902, 0.8702047506915491, -1.2656420928290864, -1.5873892943011683, 2.8612499237060547]
move up
threadDetection - iThreadRun : 1
threadDetection - iThreadRun : 2
iThreadRun : 2
finish1
Action move [2.9142093658447266, -1.1672624916942902, 0.8702047506915491, -1.2656420928290864, -1.5873892943011683, 2.8612499237060547]
movep(p[2.9142093658447266,-1.1672624916942902,0.8702047506915491,-1.2656420928290864,-1.5873892943011683,2.8612499237060547],a=0.1,v=0.01,r=0)
finish2
iThreadRun : 0
in iThreadRun
threadDetection
iThreadRun : 1
iThreadRun : 1
^CTraceback (most recent call last):
  File "Ham_move_robot_5.py", line 401, in <module>
x1 y1 x2 y2 :268 186 525 413
z Axis :OK
move left
new_pos 0.00112143
Before : [2.91410756111145, -1.151441053753235, 0.8461602369891565, -1.2553695899299164, -1.590292755757467, 2.860841989517212]
After : [2.91410756111145, -1.152562483753235, 0.8461602369891565, -1.2553695899299164, -1.590292755757467, 2.860841989517212]
move up
threadDetection - iThreadRun : 1
threadDetection - iThreadRun : 2
    ham_detect_and_adjust(10)
  File "Ham_move_robot_5.py", line 239, in ham_detect_and_adjust
    data += client_socket.recv(4*1024)
KeyboardInterrupt
^CException ignored in: <module 'threading' from '/usr/lib/python3.8/threading.py'>
Traceback (most recent call last):
  File "/usr/lib/python3.8/threading.py", line 1388, in _shutdown
    lock.acquire()
KeyboardInterrupt: 
UR_SOCKET del

cmit@ubuntu:~/dev_ws/src/wd_hga_process/wd_hga_process$ 


